svgs/solid/mosque.svg

<svg xmlns="http://www.w3.org/2000/svg" viewBox="0 0 640 512"><!--! Font Awesome Pro 6.2.0 by @fontawesome - https://fontawesome.com License - https://fontawesome.com/license (Commercial License) Copyright 2022 Fonticons, Inc. --><path d="M400 0c5 0 9.8 2.4 12.8 6.4c34.7 46.3 78.1 74.9 133.5 111.5l0 0 0 0c5.2 3.4 10.5 7 16 10.6c28.9 19.2 45.7 51.7 45.7 86.1c0 28.6-11.3 54.5-29.8 73.4H221.8c-18.4-19-29.8-44.9-29.8-73.4c0-34.4 16.7-66.9 45.7-86.1c5.4-3.6 10.8-7.1 16-10.6l0 0 0 0C309.1 81.3 352.5 52.7 387.2 6.4c3-4 7.8-6.4 12.8-6.4zM288 512V440c0-13.3-10.7-24-24-24s-24 10.7-24 24v72H192c-17.7 0-32-14.3-32-32V352c0-17.7 14.3-32 32-32H608c17.7 0 32 14.3 32 32V480c0 17.7-14.3 32-32 32H560V440c0-13.3-10.7-24-24-24s-24 10.7-24 24v72H448V454c0-19-8.4-37-23-49.2L400 384l-25 20.8C360.4 417 352 435 352 454v58H288zM70.4 5.2c5.7-4.3 13.5-4.3 19.2 0l16 12C139.8 42.9 160 83.2 160 126v2H0v-2C0 83.2 20.2 42.9 54.4 17.2l16-12zM0 160H160V296.6c-19.1 11.1-32 31.7-32 55.4V480c0 9.6 2.1 18.6 5.8 26.8c-6.6 3.4-14 5.2-21.8 5.2H48c-26.5 0-48-21.5-48-48V176 160z"/></svg>

<svg xmlns="http://www.w3.org/2000/svg" viewBox="0 0 640 512"><!--! Font Awesome Pro 6.1.2 by @fontawesome - https://fontawesome.com License - https://fontawesome.com/license (Commercial License) Copyright 2022 Fonticons, Inc. --><path d="M400 0C405 0 409.8 2.371 412.8 6.4C447.5 52.7 490.9 81.34 546.3 117.9C551.5 121.4 556.9 124.9 562.3 128.5C591.3 147.7 608 180.2 608 214.6C608 243.1 596.7 269 578.2 288H221.8C203.3 269 192 243.1 192 214.6C192 180.2 208.7 147.7 237.7 128.5C243.1 124.9 248.5 121.4 253.7 117.9C309.1 81.34 352.5 52.7 387.2 6.4C390.2 2.371 394.1 0 400 0V0zM288 440C288 426.7 277.3 416 264 416C250.7 416 240 426.7 240 440V512H192C174.3 512 160 497.7 160 480V352C160 334.3 174.3 320 192 320H608C625.7 320 640 334.3 640 352V480C640 497.7 625.7 512 608 512H560V440C560 426.7 549.3 416 536 416C522.7 416 512 426.7 512 440V512H448V453.1C448 434.1 439.6 416.1 424.1 404.8L400 384L375 404.8C360.4 416.1 352 434.1 352 453.1V512H288V440zM70.4 5.2C76.09 .9334 83.91 .9334 89.6 5.2L105.6 17.2C139.8 42.88 160 83.19 160 126V128H0V126C0 83.19 20.15 42.88 54.4 17.2L70.4 5.2zM0 160H160V296.6C140.9 307.6 128 328.3 128 352V480C128 489.6 130.1 498.6 133.8 506.8C127.3 510.1 119.9 512 112 512H48C21.49 512 0 490.5 0 464V160z"/></svg>
